icons/svg/tshirt-v.svg

﻿<?xml version="1.0" encoding="utf-8"?>
<!DOCTYPE svg PUBLIC "-//W3C//DTD SVG 1.1//EN" "http://www.w3.org/Graphics/SVG/1.1/DTD/svg11.dtd">
<svg xmlns="http://www.w3.org/2000/svg" xmlns:xlink="http://www.w3.org/1999/xlink" version="1.1" baseProfile="full" width="24" height="24" viewBox="0 0 24.00 24.00" enable-background="new 0 0 24.00 24.00" xml:space="preserve">
	<path fill="#000000" fill-opacity="1" stroke-width="0.2" stroke-linejoin="round" d="M 16,21L 8.00001,21C 7.44773,21 7.00001,20.5523 7.00001,20L 7.00001,12.0732L 5.70344,13.1198C 5.31292,13.5103 4.67975,13.5103 4.28923,13.1198L 1.4608,10.2914C 1.07028,9.90084 1.07028,9.26768 1.4608,8.87716L 7.33794,3L 9.00001,3.00001C 9.00001,4.10457 10,6 12,7.25C 14,6 15,4.10457 15,3.00001L 16.6621,3L 22.5392,8.87716C 22.9297,9.26768 22.9297,9.90085 22.5392,10.2914L 19.7108,13.1198C 19.3203,13.5103 18.6871,13.5103 18.2966,13.1198L 17,12.0732L 17,20C 17,20.5523 16.5523,21 16,21 Z M 20.4179,9.58429L 16.111,5.27741C 15,7 14,8.25 12,9.25002C 10,8.25 9,7 7.88898,5.27742L 3.58211,9.58429L 4.99633,10.9985L 7.99481,9.00002L 9,9.00002L 9,19L 15,19L 15,9.00002L 16.0052,9.00002L 19.0037,10.9985L 20.4179,9.58429 Z "/>
</svg>

<svg xmlns="http://www.w3.org/2000/svg" version="1.1" baseProfile="full" width="24" height="24" viewBox="0 0 24.00 24.00" xml:space="preserve"><path fill="#000" fill-opacity="1" stroke-width=".2" stroke-linejoin="round" d="M16 21H8c-.552 0-1-.448-1-1v-7.927L5.703 13.12c-.39.39-1.023.39-1.414 0l-2.83-2.83c-.39-.39-.39-1.022 0-1.413L7.34 3H9c0 1.105 1 3 3 4.25C14 6 15 4.105 15 3h1.662l5.877 5.877c.39.39.39 1.024 0 1.414l-2.83 2.83c-.39.39-1.023.39-1.413 0L17 12.073V20c0 .552-.448 1-1 1zm4.418-11.416L16.11 5.277C15 7 14 8.25 12 9.25c-2-1-3-2.25-4.11-3.973L3.58 9.584 4.996 11l3-2H9v10h6V9h1.005l3 1.998 1.413-1.414z"/></svg>
